X: 635
T: Adam's
R: reel
M: 4/4
K: Amajor
|:c2Ac BcBA|F2AF BFAF|E2EF ABce|afec BcAB|
c2Ac BcBA|F2AF BFAF|E2EF ABcA|1 BAGB A2=cA:|2 BAGB ABce||
|:a2ga faec|B2FB cAEF|ABce fege|afec Bceg|
a2ga faec|B2FB cAEF|ABce afec|1 BAGB ABce:|2 BAGB A2AB||

